X: 11233
T: VALSE DE PARIS
Q: "Moderate."
%R: wltz
B: W. Hamilton "Universal Tune-Book" Vol. 1 Glasgow 1844 p.123 #3
S: http://imslp.org/wiki/Hamilton's_Universal_Tune-Book_(Various)
Z: 2016 John Chambers <jc:trillian.mit.edu>
M: 3/8
L: 1/16
K: C
% - - - - - - - - - - - - - - - - - - - - - - - - -
!segno!G2 |\
EGcGec | ag g2 ec | gf f2 dB | ag g2 G2 |\
EGcGec | ag g2 ec | gf f2 dB | c4 :|\
|: ef |\
g3ec'g | a3efd | cBagAB | cBcdef |
g3ec'g | a3efd | cBagfd | c4 H:|\
|: "^Minore."E2 |\
A^GABcd | e4c2 | BABcde | f4 d2 |\
cBcde^g | aefdec | dBcAB^G | !segno!A4"D.C."y :|
% - - - - - - - - - - - - - - - - - - - - - - - - -

%%sep 1 1 500
%%sep 1 1 500

